material/.icons/material/code-json.svg

<svg xmlns="http://www.w3.org/2000/svg" viewBox="0 0 24 24"><path d="M5 3h2v2H5v5a2 2 0 01-2 2 2 2 0 012 2v5h2v2H5c-1.07-.27-2-.9-2-2v-4a2 2 0 00-2-2H0v-2h1a2 2 0 002-2V5a2 2 0 012-2m14 0a2 2 0 012 2v4a2 2 0 002 2h1v2h-1a2 2 0 00-2 2v4a2 2 0 01-2 2h-2v-2h2v-5a2 2 0 012-2 2 2 0 01-2-2V5h-2V3h2m-7 12a1 1 0 011 1 1 1 0 01-1 1 1 1 0 01-1-1 1 1 0 011-1m-4 0a1 1 0 011 1 1 1 0 01-1 1 1 1 0 01-1-1 1 1 0 011-1m8 0a1 1 0 011 1 1 1 0 01-1 1 1 1 0 01-1-1 1 1 0 011-1z"/></svg>

<?xml version="1.0" encoding="UTF-8"?><!DOCTYPE svg PUBLIC "-//W3C//DTD SVG 1.1//EN" "http://www.w3.org/Graphics/SVG/1.1/DTD/svg11.dtd"><svg xmlns="http://www.w3.org/2000/svg" xmlns:xlink="http://www.w3.org/1999/xlink" version="1.1" id="mdi-code-json" width="24" height="24" viewBox="0 0 24 24"><path d="M5,3H7V5H5V10A2,2 0 0,1 3,12A2,2 0 0,1 5,14V19H7V21H5C3.93,20.73 3,20.1 3,19V15A2,2 0 0,0 1,13H0V11H1A2,2 0 0,0 3,9V5A2,2 0 0,1 5,3M19,3A2,2 0 0,1 21,5V9A2,2 0 0,0 23,11H24V13H23A2,2 0 0,0 21,15V19A2,2 0 0,1 19,21H17V19H19V14A2,2 0 0,1 21,12A2,2 0 0,1 19,10V5H17V3H19M12,15A1,1 0 0,1 13,16A1,1 0 0,1 12,17A1,1 0 0,1 11,16A1,1 0 0,1 12,15M8,15A1,1 0 0,1 9,16A1,1 0 0,1 8,17A1,1 0 0,1 7,16A1,1 0 0,1 8,15M16,15A1,1 0 0,1 17,16A1,1 0 0,1 16,17A1,1 0 0,1 15,16A1,1 0 0,1 16,15Z" /></svg>
